X:1
T:Title
L:1/8
Q:1/4=90
M:4/4
K:C
V:1 treble nm="Choir Aahs, Staff"
V:1
 z EEF EDGG | Ac c2 cdcc | BAcB A .G3 | GAcB AGAG- | GABG GEAA- | A .D3 EGGE | GAAG- G/ z/ A BG | %7
 AGFE D .E3 |] %8

